src/32/status/gtk-dialog-authentication.svg

<?xml version="1.0" encoding="UTF-8" standalone="no"?>
<svg
   xmlns:dc="http://purl.org/dc/elements/1.1/"
   xmlns:cc="http://creativecommons.org/ns#"
   xmlns:rdf="http://www.w3.org/1999/02/22-rdf-syntax-ns#"
   xmlns:svg="http://www.w3.org/2000/svg"
   xmlns="http://www.w3.org/2000/svg"
   xmlns:xlink="http://www.w3.org/1999/xlink"
   xmlns:sodipodi="http://sodipodi.sourceforge.net/DTD/sodipodi-0.dtd"
   xmlns:inkscape="http://www.inkscape.org/namespaces/inkscape"
   version="1.1"
   width="32"
   height="32"
   id="svg3658"
   sodipodi:docname="gtk-dialog-authentication.svg"
   inkscape:version="0.92.4 (5da689c313, 2019-01-14)">
  <sodipodi:namedview
     pagecolor="#ffffff"
     bordercolor="#666666"
     borderopacity="1"
     objecttolerance="10"
     gridtolerance="10"
     guidetolerance="10"
     inkscape:pageopacity="0"
     inkscape:pageshadow="2"
     inkscape:window-width="1366"
     inkscape:window-height="711"
     id="namedview47"
     showgrid="false"
     inkscape:zoom="14.75"
     inkscape:cx="19.303032"
     inkscape:cy="15.162188"
     inkscape:window-x="0"
     inkscape:window-y="27"
     inkscape:window-maximized="1"
     inkscape:current-layer="svg3658" />
  <defs
     id="defs3660">
    <linearGradient
       id="linearGradient4011">
      <stop
         id="stop4013"
         style="stop-color:#ffffff;stop-opacity:1"
         offset="0" />
      <stop
         id="stop4015"
         style="stop-color:#ffffff;stop-opacity:0.23529412"
         offset="0.507761" />
      <stop
         id="stop4017"
         style="stop-color:#ffffff;stop-opacity:0.15686275"
         offset="0.83456558" />
      <stop
         id="stop4019"
         style="stop-color:#ffffff;stop-opacity:0.39215687"
         offset="1" />
    </linearGradient>
    <linearGradient
       id="linearGradient3820-7-2-2">
      <stop
         id="stop3822-2-6-36"
         style="stop-color:#3d3d3d;stop-opacity:1"
         offset="0" />
      <stop
         id="stop3864-8-7-6"
         style="stop-color:#686868;stop-opacity:0.49803922"
         offset="0.5" />
      <stop
         id="stop3824-1-2-4"
         style="stop-color:#686868;stop-opacity:0"
         offset="1" />
    </linearGradient>
    <radialGradient
       xlink:href="#linearGradient3820-7-2-2"
       id="radialGradient4048"
       gradientUnits="userSpaceOnUse"
       gradientTransform="matrix(0.17524541,0,0,0.05575992,-1.3768101,18.11895)"
       cx="99.157013"
       cy="186.17059"
       fx="99.157013"
       fy="186.17059"
       r="62.769119" />
    <linearGradient
       id="linearGradient3881">
      <stop
         id="stop3883"
         offset="0"
         style="stop-color:#2d2d2d;stop-opacity:1" />
      <stop
         id="stop3885"
         offset="1"
         style="stop-color:#3f3f3f;stop-opacity:1" />
    </linearGradient>
    <linearGradient
       xlink:href="#linearGradient3907-3"
       id="linearGradient3932-9"
       gradientUnits="userSpaceOnUse"
       gradientTransform="rotate(90,23.000001,16)"
       x1="6.6574788"
       y1="23"
       x2="39.441502"
       y2="23" />
    <linearGradient
       id="linearGradient3907-3">
      <stop
         style="stop-color:#fafafa;stop-opacity:1"
         offset="0"
         id="stop3909-6" />
      <stop
         style="stop-color:#d4d4d4;stop-opacity:1"
         offset="1"
         id="stop3911-7" />
    </linearGradient>
    <linearGradient
       xlink:href="#linearGradient4011"
       id="linearGradient3111-7"
       gradientUnits="userSpaceOnUse"
       gradientTransform="matrix(0.72972969,0,0,0.7297297,-36.346079,-2.5039306)"
       x1="71.204407"
       y1="7.6175823"
       x2="71.204407"
       y2="43.282776" />
    <linearGradient
       y2="44.340794"
       x2="71.204407"
       y1="6.2375584"
       x1="71.204407"
       gradientTransform="matrix(0.62162159,0,0,-0.6216216,-28.591103,31.762608)"
       gradientUnits="userSpaceOnUse"
       id="linearGradient3993-0-6-0-8-5"
       xlink:href="#linearGradient4011" />
    <linearGradient
       xlink:href="#linearGradient992"
       id="linearGradient2842"
       gradientUnits="userSpaceOnUse"
       gradientTransform="matrix(0,-1.7460316,-1.7460315,0,56.158726,56.158726)"
       x1="6.6574788"
       y1="23"
       x2="37.554001"
       y2="23" />
    <linearGradient
       id="linearGradient992">
      <stop
         id="stop988"
         offset="0"
         style="stop-color:#fafafa;stop-opacity:1" />
      <stop
         id="stop990"
         offset="1"
         style="stop-color:#abacae;stop-opacity:1" />
    </linearGradient>
    <linearGradient
       xlink:href="#linearGradient3881"
       id="linearGradient1733"
       gradientUnits="userSpaceOnUse"
       gradientTransform="matrix(0.99999963,0,0,1.0909091,60.000009,-2.1818185)"
       x1="24"
       y1="14"
       x2="24"
       y2="33" />
    <linearGradient
       xlink:href="#linearGradient3881"
       id="linearGradient1731"
       gradientUnits="userSpaceOnUse"
       gradientTransform="matrix(0.99999963,0,0,1.0909091,60.000009,-2.1818185)"
       x1="881.00031"
       y1="-244.23959"
       x2="881.00031"
       y2="-233.92709" />
    <clipPath
       clipPathUnits="userSpaceOnUse"
       id="clipPath3865-7-7-8-6">
      <path
         d="m 32,24 a 8,8 0 1 1 -16,0 8,8 0 1 1 16,0 z"
         id="path3867-9-4-4-4"
         style="opacity:0.2;fill:#000000;fill-opacity:1;stroke:none" />
    </clipPath>
  </defs>
  <metadata
     id="metadata3663">
    <rdf:RDF>
      <cc:Work
         rdf:about="">
        <dc:format>image/svg+xml</dc:format>
        <dc:type
           rdf:resource="http://purl.org/dc/dcmitype/StillImage" />
        <dc:title />
      </cc:Work>
    </rdf:RDF>
  </metadata>
  <path
     style="fill:#ececec;fill-opacity:1;fill-rule:nonzero;stroke:none;stroke-width:1"
     id="path3902-8"
     d="M 16.000494,2.0000008 C 8.2682641,2.0000008 2,8.2684763 2,15.999823 2,23.731879 8.2683314,30 16.000494,30 23.732376,30 30,23.731879 30,15.999823 30,8.2684763 23.732376,2.0000008 16.000494,2.0000008 Z" />
  <path
     style="color:#000000;display:inline;overflow:visible;visibility:visible;opacity:0.5;fill:none;stroke:#555761;stroke-width:1;stroke-linecap:round;stroke-linejoin:round;stroke-miterlimit:4;stroke-dasharray:none;stroke-dashoffset:0;stroke-opacity:1;marker:none;enable-background:accumulate"
     id="path2555-6-6"
     d="M 16.000002,1.4999984 C 7.999402,1.4999984 1.5,7.9993979 1.5,15.999999 1.5,24.000599 7.999402,30.500002 16.000002,30.5 24.000598,30.5 30.500008,24.000599 30.5,15.999999 30.5,7.9993979 24.000598,1.4999984 16.000002,1.4999984 Z" />
  <path
     style="opacity:1;vector-effect:none;fill:#cccccc;fill-opacity:1;fill-rule:nonzero;stroke:none;stroke-width:1;stroke-linecap:butt;stroke-linejoin:miter;stroke-miterlimit:4;stroke-dasharray:none;stroke-dashoffset:0;stroke-opacity:1"
     id="path3824-3-2"
     d="M 16.000393,27 C 9.9250614,27 5,22.07477 5,16.000138 5,9.9249524 9.9251159,5.0000022 16.000393,5.0000022 22.075439,5.0000022 27,9.9249524 27,16.000138 27,22.07477 22.075439,27 16.000393,27 Z" />
  <g
     id="g854-6-0-4"
     transform="matrix(0.91666667,0,0,0.91666667,-846.33334,258.58333)"
     style="opacity:0.5;vector-effect:none;fill:#ffffff;fill-opacity:1;stroke:none;stroke-width:1.09090912;stroke-linecap:butt;stroke-linejoin:miter;stroke-miterlimit:4;stroke-dasharray:none;stroke-dashoffset:0;stroke-opacity:1" />
  <g
     id="g854-3"
     transform="matrix(0.91666667,0,0,0.91666667,-846.33334,257.58333)"
     style="opacity:1;vector-effect:none;fill:url(#linearGradient1733);fill-opacity:1;stroke:none;stroke-width:1.09090912;stroke-linecap:butt;stroke-linejoin:miter;stroke-miterlimit:4;stroke-dasharray:none;stroke-dashoffset:0;stroke-opacity:1">
    <path
       id="path852-3"
       style="color:#000000;overflow:visible;vector-effect:none;fill:#4d4d4d;fill-opacity:1;stroke:none;stroke-width:1.09090912;stroke-linecap:butt;stroke-linejoin:miter;stroke-miterlimit:4;stroke-dasharray:none;stroke-dashoffset:0;stroke-opacity:1;marker:none"
       overflow="visible"
       d="m 941,-269 a 3,3 0 0 0 -3,3 c 0,1.243 0.745,2.304 1.822,2.759 L 938,-257 h 6 l -1.821,-6.241 A 2.984,2.984 0 0 0 944,-266 a 3,3 0 0 0 -3,-3 z" />
  </g>
  <g
     id="g854-6-8"
     transform="matrix(0.94308941,0,0,0.94308941,-871.44704,264.38617)"
     style="opacity:1;vector-effect:none;fill:none;fill-opacity:1;stroke:none;stroke-width:1.06034482;stroke-linecap:butt;stroke-linejoin:miter;stroke-miterlimit:4;stroke-dasharray:none;stroke-dashoffset:0;stroke-opacity:1">
    <path
       id="path852-1-60"
       style="color:#000000;overflow:visible;vector-effect:none;fill:none;fill-opacity:1;stroke:none;stroke-width:1.06034482;stroke-linecap:butt;stroke-linejoin:miter;stroke-miterlimit:4;stroke-dasharray:none;stroke-dashoffset:0;stroke-opacity:1;marker:none"
       overflow="visible"
       d="m 941,-269 a 3,3 0 0 0 -3,3 c 0,1.243 0.745,2.304 1.822,2.759 L 938,-257 h 6 l -1.821,-6.241 A 2.984,2.984 0 0 0 944,-266 a 3,3 0 0 0 -3,-3 z" />
  </g>
  <path
     transform="matrix(1.375,0,0,1.3750001,-17,-17.000003)"
     d="m 32,24 a 8,8 0 1 1 -16,0 8,8 0 1 1 16,0 z"
     id="path3859-6-7-0-9"
     style="opacity:0.2;vector-effect:none;fill:none;fill-opacity:1;stroke:#555761;stroke-width:1.45454538;stroke-linecap:butt;stroke-linejoin:miter;stroke-miterlimit:4;stroke-dasharray:none;stroke-dashoffset:0;stroke-opacity:1"
     clip-path="url(#clipPath3865-7-7-8-6)" />
  <g
     transform="translate(-653.73339,94.999675)"
     id="g999" />
  <path
     id="path1172"
     d="M 16.25 11.5 A 2.25 2.25 0 0 0 14 13.75 A 2.25 2.25 0 0 0 15.818359 15.957031 L 14.177734 21.5 L 18.337891 21.5 L 16.683594 15.955078 A 2.25 2.25 0 0 0 18.5 13.75 A 2.25 2.25 0 0 0 16.25 11.5 z "
     style="opacity:1;vector-effect:none;fill:none;fill-opacity:1;stroke:#3e3e3e;stroke-width:1px;stroke-linecap:butt;stroke-linejoin:miter;stroke-miterlimit:4;stroke-dasharray:none;stroke-dashoffset:0;stroke-opacity:1;marker:none" />
</svg>

<svg xmlns="http://www.w3.org/2000/svg" xmlns:xlink="http://www.w3.org/1999/xlink" width="32" height="32"><defs><linearGradient id="c"><stop offset="0" stop-color="#fff"/><stop offset=".508" stop-color="#fff" stop-opacity=".235"/><stop offset=".835" stop-color="#fff" stop-opacity=".157"/><stop offset="1" stop-color="#fff" stop-opacity=".392"/></linearGradient><linearGradient id="a"><stop offset="0" stop-color="#3d3d3d"/><stop offset=".5" stop-color="#686868" stop-opacity=".498"/><stop offset="1" stop-color="#686868" stop-opacity="0"/></linearGradient><linearGradient id="e"><stop offset="0" stop-color="#2d2d2d"/><stop offset="1" stop-color="#3f3f3f"/></linearGradient><linearGradient id="b"><stop offset="0" stop-color="#fafafa"/><stop offset="1" stop-color="#d4d4d4"/></linearGradient><linearGradient id="d"><stop offset="0" stop-color="#fafafa"/><stop offset="1" stop-color="#abacae"/></linearGradient><linearGradient xlink:href="#e" id="f" gradientUnits="userSpaceOnUse" gradientTransform="matrix(1 0 0 1.0909 60 -2.182)" x1="24" y1="14" x2="24" y2="33"/><clipPath clipPathUnits="userSpaceOnUse" id="g"><path d="M32 24a8 8 0 1 1-16 0 8 8 0 1 1 16 0z" opacity=".2"/></clipPath></defs><path d="M16 2C8.268 2 2 8.268 2 16s6.268 14 14 14 14-6.268 14-14S23.732 2 16 2z" fill="#ececec"/><path style="marker:none" d="M16 1.5C8 1.5 1.5 8 1.5 16S8 30.5 16 30.5 30.5 24 30.5 16 24 1.5 16 1.5z" color="#000" overflow="visible" opacity=".5" fill="none" stroke="#555761" stroke-linecap="round" stroke-linejoin="round"/><path d="M16 27C9.925 27 5 22.075 5 16S9.925 5 16 5s11 4.925 11 11-4.925 11-11 11z" fill="#ccc"/><path style="marker:none" overflow="visible" d="M16.25 11a2.75 2.75 0 0 0-2.75 2.75c0 1.14.683 2.112 1.67 2.53L13.5 22H19l-1.67-5.72A2.735 2.735 0 0 0 19 13.75 2.75 2.75 0 0 0 16.25 11z" color="#000" fill="#4d4d4d" stroke-width="1.091"/><path style="marker:none" overflow="visible" d="M16 10.695a2.83 2.83 0 0 0-2.83 2.83c0 1.172.703 2.172 1.72 2.601l-1.72 5.886h5.66l-1.718-5.886a2.814 2.814 0 0 0 1.717-2.602A2.83 2.83 0 0 0 16 10.695z" color="#000" fill="none" stroke-width="1.06"/><path transform="translate(-17 -17) scale(1.375)" d="M32 24a8 8 0 1 1-16 0 8 8 0 1 1 16 0z" clip-path="url(#g)" opacity=".2" fill="none" stroke="#555761" stroke-width="1.455"/><path d="M16.25 11.5A2.25 2.25 0 0 0 14 13.75a2.25 2.25 0 0 0 1.818 2.207l-1.64 5.543h4.16l-1.654-5.545A2.25 2.25 0 0 0 18.5 13.75a2.25 2.25 0 0 0-2.25-2.25z" style="marker:none" fill="none" stroke="#3e3e3e"/></svg>
